assets/sonr-icons/device-servers.svg

<svg xmlns="http://www.w3.org/2000/svg" width="24" height="24" fill="none"><path fill="currentColor" d="M15 17a1 1 0 1 0 0 2 1 1 0 0 0 0-2m-4 0H9a1 1 0 0 0 0 2h2a1 1 0 0 0 0-2m0-6H9a1 1 0 0 0 0 2h2a1 1 0 0 0 0-2m4 0a1 1 0 1 0 0 2 1 1 0 0 0 0-2m8-3a3 3 0 0 0-3-3h-1a3 3 0 0 0-3-3H8a3 3 0 0 0-3 3H4a3 3 0 0 0-3 3v2c.004.772.3 1.474.782 2.002L1.78 12A2.98 2.98 0 0 0 1 13.999V16a3 3 0 0 0 3 3h1a3 3 0 0 0 3 3h8a3 3 0 0 0 3-3h1a3 3 0 0 0 3-3v-2a3 3 0 0 0-.782-2.002l.002.002c.48-.527.776-1.229.78-1.999zM5 17H4a1 1 0 0 1-1-1v-2a1 1 0 0 1 1-1h1c.005.772.3 1.474.782 2.003l-.002-.002A3 3 0 0 0 5 17m0-6H4a1 1 0 0 1-1-1V8a1 1 0 0 1 1-1h1c.005.772.3 1.474.782 2.003l-.002-.002A3 3 0 0 0 5 11m12 8a1 1 0 0 1-1 1H8a1 1 0 0 1-1-1v-2a1 1 0 0 1 1-1h8a1 1 0 0 1 1 1zm0-6a1 1 0 0 1-1 1H8a1 1 0 0 1-1-1v-2a1 1 0 0 1 1-1h8a1 1 0 0 1 1 1zm0-6a1 1 0 0 1-1 1H8a1 1 0 0 1-1-1V5a1 1 0 0 1 1-1h8a1 1 0 0 1 1 1zm4 9a1 1 0 0 1-1 1h-1a3 3 0 0 0-.782-2.003l.002.002c.48-.526.776-1.228.78-1.999l1-.001a1 1 0 0 1 1 1zm0-6a1 1 0 0 1-1 1h-1a3 3 0 0 0-.782-2.003l.002.002c.48-.526.776-1.228.78-1.999l1-.001a1 1 0 0 1 1 1zm-6-5a1 1 0 1 0 0 2 1 1 0 0 0 0-2m-4 0H9a1 1 0 0 0 0 2h2a1 1 0 0 0 0-2"/></svg>

<svg xmlns="http://www.w3.org/2000/svg" width="24" height="24" fill="none" viewBox="0 0 24 24"><path fill="#000" d="M15 17C14.448 17 14 17.448 14 18C14 18.552 14.448 19 15 19C15.552 19 16 18.552 16 18C16 17.448 15.552 17 15 17ZM11 17H9C8.448 17 8 17.448 8 18C8 18.552 8.448 19 9 19H11C11.552 19 12 18.552 12 18C12 17.448 11.552 17 11 17ZM11 11H9C8.448 11 8 11.448 8 12C8 12.552 8.448 13 9 13H11C11.552 13 12 12.552 12 12C12 11.448 11.552 11 11 11ZM15 11C14.448 11 14 11.448 14 12C14 12.552 14.448 13 15 13C15.552 13 16 12.552 16 12C16 11.448 15.552 11 15 11ZM23 8C23 6.343 21.657 5 20 5H19C19 3.343 17.657 2 16 2H8C6.343 2 5 3.343 5 5H4C2.343 5 1 6.343 1 8V10C1.004 10.772 1.3 11.474 1.782 12.002L1.78 12C1.3 12.526 1.004 13.228 1 13.999V16C1 17.657 2.343 19 4 19H5C5 20.657 6.343 22 8 22H16C17.657 22 19 20.657 19 19H20C21.657 19 23 17.657 23 16V14C22.995 13.228 22.7 12.526 22.218 11.998L22.22 12C22.7 11.473 22.996 10.771 23 10.001V8ZM5 17H4C3.448 17 3 16.552 3 16V14C3 13.448 3.448 13 4 13H5C5.005 13.772 5.3 14.474 5.782 15.003L5.78 15.001C5.3 15.527 5.005 16.229 5 17ZM5 11H4C3.448 11 3 10.552 3 10V8C3 7.448 3.448 7 4 7H5C5.005 7.772 5.3 8.474 5.782 9.003L5.78 9.001C5.3 9.527 5.005 10.23 5 11ZM17 19C17 19.552 16.552 20 16 20H8C7.448 20 7 19.552 7 19V17C7 16.448 7.448 16 8 16H16C16.552 16 17 16.448 17 17V19ZM17 13C17 13.552 16.552 14 16 14H8C7.448 14 7 13.552 7 13V11C7 10.448 7.448 10 8 10H16C16.552 10 17 10.448 17 11V13ZM17 7C17 7.552 16.552 8 16 8H8C7.448 8 7 7.552 7 7V5C7 4.448 7.448 4 8 4H16C16.552 4 17 4.448 17 5V7ZM21 16C21 16.552 20.552 17 20 17H19C18.995 16.228 18.7 15.526 18.218 14.997L18.22 14.999C18.7 14.473 18.996 13.771 19 13L20 12.999C20.552 12.999 21 13.447 21 13.999V15.999V16ZM21 10C21 10.552 20.552 11 20 11H19C18.995 10.228 18.7 9.526 18.218 8.997L18.22 8.999C18.7 8.473 18.996 7.771 19 7L20 6.999C20.552 6.999 21 7.447 21 7.999V9.999V10ZM15 5C14.448 5 14 5.448 14 6C14 6.552 14.448 7 15 7C15.552 7 16 6.552 16 6C16 5.448 15.552 5 15 5ZM11 5H9C8.448 5 8 5.448 8 6C8 6.552 8.448 7 9 7H11C11.552 7 12 6.552 12 6C12 5.448 11.552 5 11 5Z"/></svg>
